X:17726
T:Trepeletr (San Roque del Acebal - Llanes)
C:Trad.
M:3/8
L:1/8
Q:1/8=208
K:C
|G2 G|GAG|FED|CFF|G2 G-|G2 z|
|G2 G|GAG|FED|F_ED|C2 C|CB,C|D2 B,|D2 B,|DD_B|F_ED|C z2|
